X:1
T:Nobel Franz
M:4/4
N:Updated 2/16/04 - JR
K:Em
|: "Em"E2 GB E2 GB | "Am"c2 BA "Em"B2 z2 | "Am"cded cBAB | "Em"G2 A2 "B7"F2 z2 |
"Em"E2 GB E2 GB | "Am"c2 BA "Em"B2 z2 | "Am"cded cBAB | "B7"G2 F2 "Em"E2 z2 :|
|: "Em"e2 (3efg "Am"f2 e2 | "D7"dede "G"B2 z2 | "C"cded cBAB | "G"G2 A2 "B7"F4 |
"Em"e2 (3efg "Am"f2 e2 | "D"dede "G"B2 z2 | "Am"cded cBAB | "B7"GAFG "Em"E2 z2 :|
